X:1
T:Title
%%score { ( 1 3 4 ) | 2 }
L:1/8
Q:1/4=113
M:6/8
K:D
V:1 treble nm="Grand Piano"
V:3 treble 
V:4 treble 
V:2 bass 
V:1
 [FA]3 [FA]2 [GB] | [FA]3 [A,DF]2 [F,D] | [A,DF]3 [A,CF]2[K:bass] [G,CE] | [F,D]6 | %4
w: H.~P.~Danks * *||||
 [G,DG]3 [DA]2 [DB] | A3 F2 F | E3 E2 E | [CE]6 | F3 D2 E | F3 F2 [DF] | [DG]3 [DB]2 [DB] | [DA]6 | %12
w: ||||||||
 [DB]3 [DB]2 [DB] | [DA] [A,DF]2- [A,DF]2 [F,D] | [A,DF]3 [A,CF]2[K:bass] [G,CE] | [F,D]6 | %16
w: ||||
 [DB]3 [DB]2 [DB] | B6 | A3 A2 A | A6 | ^G3 G3 | ^G3 F2 G | [CA-]3 A3- | A3 z3 | F3 D2 E | %25
w: |||||||||
 F3 F2 [DF] | [DG]3 [DB]2 [DB] | [DA]6 | [DB]3 [DB]2 [DB] | [DA] [A,DF]2- [A,DF]2 [F,D] | %30
w: |||||
 [A,DF]3 [A,CF]2[K:bass] [G,CE] | [F,D]6 |] %32
w: ||
V:2
 [D,D]3 [D,D]2 [D,D] | [D,D]3 D,2 D, | A,,3 A,,2 A,, | D,6 | B,,3 [A,,F,]2 [G,,G,] | %5
 [D,F,D]3 [D,A,D]2 [D,A,D] | [E,A,C]3 [E,^G,D]2 [E,G,D] | [A,,A,]6 | [D,A,D]3 [D,F,]2 [D,G,D] | %9
 [D,A,D]3 [D,A,D]2 [=C,A,] | [B,,G,]3 [G,,G,]2 [G,,G,] | [D,F,]6 | [G,,G,]3 [G,,G,]2 [G,,G,] | %13
 [A,,F,] A,,2- A,,2 B,, | A,,3 A,,2 A,, | D,6 | [G,,G,]3 [G,,G,]2 [G,,G,] | [G,,G,]3 [G,,G,]3 | %18
 [D,F,D]3 [D,F,D]2 [D,F,D] | [D,F,D]3 [D,F,]3 | [E,D]3 [E,D]3 | [E,B,D]3 [E,B,D]2 [E,B,D] | %22
 A,,3 B,,2 B,, | C,6 | [D,A,D]3 [D,F,]2 [D,G,D] | [D,A,D]3 [D,A,D]2 [=C,A,] | %26
 [B,,G,]3 [G,,G,]2 [G,,G,] | [D,F,]6 | [G,,G,]3 [G,,G,]2 [G,,G,] | [A,,F,] A,,2- A,,2 B,, | %30
 A,,3 A,,2 A,, | D,6 |] %32
V:3
 x6 | x6 | x5[K:bass] x | x6 | x6 | x6 | x6 | x6 | x6 | x6 | x6 | x6 | x6 | x6 | x5[K:bass] x | %15
 x6 | x6 | D3 D3 | x6 | z3 D3 | x6 | x6 | x6 | E6 | x6 | x6 | x6 | x6 | x6 | x6 | x5[K:bass] x | %31
 x6 |] %32
V:4
 x6 | x6 | x5[K:bass] x | x6 | x6 | x6 | x6 | x6 | x6 | x6 | x6 | x6 | x6 | x6 | x5[K:bass] x | %15
 x6 | x6 | x6 | x6 | x6 | x6 | x6 | A,3- [A,-D]2 [A,-D] | A,3- [A,G]3 | x6 | x6 | x6 | x6 | x6 | %29
 x6 | x5[K:bass] x | x6 |] %32

